X:1
T: The Ferry Road
C:Margaret Leask
R:Jig
Q:180
K:G
M:6/8
L:1/16
|:Bc|d4g2 b4a2|g6 g2f2e2|d4d2 d2e2d2|c6 c4B2|A4B2 c4d2|f6 e6|
|1d4d2 d2e2d2|B6 B4c2:|2d4d2 d2e2f2|g6 g4|
|:d4d2 d2e2d2|B6 G6|G4G2 G2B2G2|E6 E2F2E2|D4F2 A4c2|f6 e6|
|1d4d2 d2e2d2|B6 B4c2:|2d4d2 d2e2f2|g6 g4||
